X: 15
T: Suckeys Delight
%%VWML:Thompsons1765-2277d-p8-0
F:http://www.vwml.org/record/Thompsons1765/2277d/p8
B: Chas & Sam Thompson "Twenty Four Country Dances for the Year 1765", London 1765, p.8 #1 
F: http://www.vwml.org/browse/browse-collections-dance-tune-books/browse-thompsons1765#
Z: 2014 John Chambers <jc:trillian.mit.edu> (added dance description)
M: 6/8
L: 1/8
K: G
|:\
g2f {f}e2d | efg d3 |\
c2B {B}A2G | ABG FED |\
g2f {f}e2d | efg d2c |\
BGB AFA | G3 [G3G,3] ::\
B2c d2=f | e2d c2B |
A2B c2e | d2c B2A |\
G2A B2d | c2B A2G |\
FAG FED | FAG FED |\
dBg ecg | dBg ecg |\
BGB AFA | G3 [G3G,3] :|
% - - - - - - - - - - Dance description - - - - - - - - - -
%%begintext align
%% First Man foot to the 2d Wo: and turn his Partner .|. first Wo:
%% foot to the 2d Man and do the same :|. Cross over two Cu: lead
%% up One and turn .|: hands six round lead to the top & cast off
%% :|:
%%endtext
T: Miss Dolland's Delight
%R: march, reel
B: Chas & Sam Thompson "Twenty Four Country Dances for the Year 1765", London 1765, p.8 #2 
F: http://www.vwml.org/browse/browse-collections-dance-tune-books/browse-thompsons1765#
Z: 2014 John Chambers <jc:trillian.mit.edu> (added dance description)
M: 2/4
L: 1/8
K: A
|:\
Aa2g- | gf2e | faec | dBAG |\
Aa2g- | gf2e | faB^d | e2E2 :|
|:\
Ed2c/B/ | ce2d | caAc | BEE2 |\
Ac2B/A/ | Bagf | edcB | A2A,2 :|
% - - - - - - - - - - Dance description - - - - - - - - - - 
%%begintext align
%% First Man set to the 2d Wo: & turn .|. First Wo 
%% do the same with the 2d Man :|. lead down 2 
%% Cu: & cast up one .|: Right & Left :|: 
%%endtext
